X:1
T: meines Herzens Grunde
M:3/4
L:1/4
K:G bass
G |g"6.5"e"6"f |gde |\
c"2"B/A/G |Hd2G |\
"6"F"6"G"6"A |"6"B"6"cd"7" |HG2 :|
G |G"6"A"6"B
